X:1
T:RVW2/1/13 Green Mossy Banks-0
T:RVW2/1/13 Green Mossy Banks-0
T:Sung by Jake Willis (Crimean veteran) at Hadleigh, Sept. 3rd and 4th 1907 (7 [misnumbered 6 in MS] of 7)
T:Transcribed by Simon Furey and Lewis Jones
C:Transcribed by Simon Furey and Lewis Jones
L:1/8
Q:1/8=100
M:3/8
K:E
V:1 treble 
V:1
"^(editorial suggestion)" E/F/ | GBB | GAG/F/ | D E2- | E2 E/F/ | GFE | B,EF | E3- | E2 :| E | %10
 GBB | dBd | e E2- | E2 E | GAB | dBd | e3- | e2 e | dBA | GAF | DEE/F/ | GFE | DEF | E3- | E2 |] %25

